flaticon/transport/alloy-wheel-1.svg

<svg xmlns="http://www.w3.org/2000/svg" width="32" height="32" viewBox="0 0 24 24">
    <path d="M 12 0 C 5.398438 0 0 5.398438 0 12 C 0 18.601562 5.398438 24 12 24 C 18.601562 24 24 18.601562 24 12 C 24 5.398438 18.601562 0 12 0 Z M 12 23.199219 C 5.839844 23.199219 0.800781 18.160156 0.800781 12 C 0.800781 5.839844 5.839844 0.800781 12 0.800781 C 18.160156 0.800781 23.199219 5.839844 23.199219 12 C 23.199219 18.160156 18.160156 23.199219 12 23.199219 Z M 12 23.199219"/>
    <path d="M 18.84375 6.484375 C 18.84375 6.484375 18.839844 6.480469 18.839844 6.480469 L 18.601562 6.160156 L 18.582031 6.175781 C 17.453125 4.902344 15.960938 3.957031 14.277344 3.5 L 14.28125 3.480469 L 13.921875 3.398438 C 12.640625 3.121094 11.359375 3.121094 10.078125 3.398438 L 9.71875 3.480469 L 9.722656 3.5 C 8.054688 3.949219 6.582031 4.882812 5.457031 6.132812 L 5.441406 6.121094 L 5.269531 6.347656 C 5.140625 6.5 5.019531 6.652344 4.90625 6.8125 C 4.464844 7.394531 4.113281 8.03125 3.84375 8.703125 C 3.429688 9.722656 3.199219 10.835938 3.199219 12 C 3.199219 13.730469 3.707031 15.34375 4.574219 16.707031 L 4.558594 16.71875 L 4.765625 16.996094 C 4.859375 17.128906 4.957031 17.257812 5.054688 17.386719 C 5.363281 17.785156 5.707031 18.160156 6.082031 18.5 C 6.605469 18.976562 7.1875 19.390625 7.8125 19.734375 L 7.921875 19.800781 L 7.925781 19.792969 C 9.144531 20.433594 10.53125 20.800781 12 20.800781 C 13.859375 20.800781 15.589844 20.214844 17.015625 19.21875 C 17.078125 19.175781 17.140625 19.132812 17.199219 19.085938 C 17.207031 19.082031 17.210938 19.078125 17.214844 19.074219 C 19.386719 17.46875 20.800781 14.890625 20.800781 12 C 20.800781 9.917969 20.066406 7.996094 18.84375 6.484375 Z M 19.71875 9.921875 L 16.679688 11.039062 L 14.480469 11.839844 C 14.441406 11.441406 14.320312 11.039062 14.121094 10.71875 L 16.679688 8.71875 L 16.675781 8.714844 L 18.476562 7.320312 C 18.90625 7.910156 19.253906 8.558594 19.507812 9.25 C 19.589844 9.472656 19.660156 9.695312 19.71875 9.921875 Z M 16.121094 18.839844 L 14.71875 16.960938 L 14.609375 16.8125 L 12.742188 14.3125 C 13.09375 14.1875 13.445312 13.953125 13.71875 13.679688 L 16.28125 15.601562 L 16.304688 15.578125 L 18.199219 17 C 17.601562 17.761719 16.921875 18.359375 16.121094 18.839844 Z M 9.125 16.839844 L 7.699219 18.734375 C 6.929688 18.242188 6.253906 17.625 5.695312 16.910156 L 7.601562 15.480469 L 10.160156 13.558594 C 10.175781 13.578125 10.191406 13.597656 10.207031 13.617188 C 10.253906 13.675781 10.300781 13.730469 10.355469 13.777344 C 10.390625 13.8125 10.425781 13.84375 10.460938 13.875 C 10.5 13.902344 10.535156 13.933594 10.574219 13.960938 C 10.730469 14.070312 10.898438 14.160156 11.078125 14.238281 L 9.121094 16.839844 Z M 4.402344 9.5 C 4.472656 9.296875 4.550781 9.09375 4.632812 8.890625 C 4.875 8.324219 5.179688 7.789062 5.539062 7.296875 L 9.960938 10.71875 C 9.917969 10.792969 9.882812 10.867188 9.847656 10.941406 C 9.738281 11.164062 9.660156 11.402344 9.625 11.65625 C 9.617188 11.710938 9.609375 11.769531 9.601562 11.824219 L 6.558594 10.71875 L 4.285156 9.882812 C 4.324219 9.753906 4.359375 9.625 4.402344 9.5 Z M 11.992188 4 C 12.03125 4 12.074219 4 12.113281 4 C 12.128906 4 12.140625 4 12.15625 4.003906 C 12.558594 4.011719 12.957031 4.050781 13.359375 4.121094 L 12.445312 9.558594 L 11.601562 9.558594 L 11.078125 6.441406 L 10.992188 6.464844 L 10.601562 4.125 C 11.050781 4.042969 11.515625 4 11.992188 4 Z M 13.351562 11.148438 C 13.492188 11.386719 13.585938 11.644531 13.597656 11.925781 C 13.597656 11.949219 13.601562 11.976562 13.601562 12 C 13.601562 12.054688 13.597656 12.109375 13.589844 12.164062 C 13.582031 12.222656 13.5625 12.277344 13.519531 12.320312 L 13.441406 12.640625 L 13.28125 12.878906 C 13 13.320312 12.519531 13.601562 12 13.601562 C 11.984375 13.601562 11.96875 13.597656 11.957031 13.597656 L 11.800781 13.558594 C 11.445312 13.503906 11.125 13.355469 10.882812 13.128906 C 10.789062 13.03125 10.707031 12.921875 10.640625 12.800781 L 10.519531 12.601562 L 10.507812 12.578125 C 10.5 12.550781 10.488281 12.519531 10.476562 12.492188 L 10.441406 12.320312 C 10.433594 12.308594 10.429688 12.296875 10.425781 12.285156 C 10.410156 12.195312 10.398438 12.097656 10.398438 12 C 10.398438 11.976562 10.402344 11.949219 10.402344 11.925781 C 10.421875 11.554688 10.582031 11.21875 10.878906 10.878906 L 10.964844 10.78125 C 11.246094 10.542969 11.605469 10.398438 12 10.398438 C 12.566406 10.398438 13.066406 10.699219 13.351562 11.148438 Z M 13.511719 10.140625 C 13.414062 10.058594 13.3125 9.988281 13.203125 9.925781 L 13.640625 7.480469 C 14.316406 7.71875 14.914062 8.117188 15.433594 8.632812 Z M 10.765625 9.945312 C 10.691406 9.988281 10.621094 10.039062 10.554688 10.089844 L 8.617188 8.585938 C 9.121094 8.09375 9.703125 7.710938 10.359375 7.480469 Z M 7.199219 11.800781 L 9.710938 12.714844 C 9.722656 12.761719 9.742188 12.808594 9.757812 12.851562 L 7.800781 14.320312 C 7.398438 13.601562 7.199219 12.839844 7.199219 12 C 7.199219 11.921875 7.199219 11.878906 7.199219 11.800781 Z M 11.863281 14.550781 L 13.398438 16.601562 C 12.445312 16.917969 11.375 16.878906 10.378906 16.527344 Z M 16.121094 14.441406 L 14.183594 12.988281 C 14.21875 12.914062 14.25 12.839844 14.273438 12.761719 L 16.800781 11.839844 C 16.800781 11.882812 16.800781 11.929688 16.800781 11.960938 C 16.800781 12.839844 16.558594 13.679688 16.121094 14.441406 Z M 17.949219 6.667969 L 16.128906 8.09375 C 15.472656 7.40625 14.664062 6.90625 13.75 6.632812 L 14.144531 4.292969 C 15.628906 4.710938 16.945312 5.546875 17.949219 6.667969 Z M 9.851562 4.296875 L 10.238281 6.679688 C 9.398438 6.960938 8.636719 7.453125 8.011719 8.117188 L 6.089844 6.625 C 7.089844 5.527344 8.386719 4.707031 9.851562 4.296875 Z M 4 12 C 4 11.546875 4.039062 11.105469 4.109375 10.675781 L 6.417969 11.515625 C 6.398438 11.6875 6.398438 11.851562 6.398438 12 C 6.398438 12.992188 6.652344 13.953125 7.15625 14.800781 L 5.21875 16.230469 C 4.449219 15.003906 4 13.550781 4 12 Z M 8.414062 19.144531 L 9.886719 17.183594 C 10.558594 17.453125 11.277344 17.601562 12 17.601562 C 12.652344 17.601562 13.308594 17.480469 13.933594 17.269531 L 15.398438 19.234375 C 14.367188 19.726562 13.214844 20 12 20 C 10.710938 20 9.492188 19.691406 8.414062 19.144531 Z M 18.691406 16.367188 L 16.820312 14.964844 C 17.390625 14.070312 17.679688 13.035156 17.679688 12 C 17.679688 11.851562 17.679688 11.691406 17.671875 11.523438 L 19.894531 10.710938 C 19.964844 11.132812 20 11.5625 20 12 C 20 13.609375 19.519531 15.109375 18.691406 16.367188 Z M 18.691406 16.367188"/>
</svg>

<svg xmlns="http://www.w3.org/2000/svg" width="32" height="32" viewBox="0 0 24 24">
    <path d="M12 0C5.398 0 0 5.398 0 12s5.398 12 12 12 12-5.398 12-12S18.602 0 12 0zm0 23.2C5.84 23.2.8 18.16.8 12 .8 5.84 5.84.8 12 .8 18.16.8 23.2 5.84 23.2 12c0 6.16-5.04 11.2-11.2 11.2zm0 0"/>
    <path d="M18.844 6.484l-.004-.004-.238-.32-.02.016A8.868 8.868 0 0 0 14.277 3.5l.004-.02-.36-.082a8.983 8.983 0 0 0-3.843 0l-.36.082.005.02a8.846 8.846 0 0 0-4.266 2.633l-.016-.012-.171.227a6.78 6.78 0 0 0-.364.465 8.124 8.124 0 0 0-1.062 1.89 8.745 8.745 0 0 0 .73 8.004l-.015.012.207.277c.093.133.191.262.289.39.308.4.652.774 1.027 1.114.523.477 1.106.89 1.73 1.234l.11.067.004-.008a8.736 8.736 0 0 0 9.09-.574c.062-.043.125-.086.183-.133a.054.054 0 0 0 .016-.012C19.387 17.47 20.8 14.891 20.8 12a8.751 8.751 0 0 0-1.957-5.516zm.875 3.438l-3.04 1.117-2.199.8c-.039-.398-.16-.8-.359-1.12l2.559-2-.004-.004 1.8-1.395a7.903 7.903 0 0 1 1.243 2.602zM16.12 18.84l-1.402-1.88-.11-.148-1.867-2.5c.352-.124.703-.359.977-.632l2.562 1.922.024-.024L18.199 17a7.502 7.502 0 0 1-2.078 1.84zm-6.996-2l-1.426 1.894a8.04 8.04 0 0 1-2.004-1.824l1.907-1.43 2.558-1.921.047.058a2.402 2.402 0 0 0 .254.258c.039.027.074.059.113.086.156.11.324.2.504.277L9.121 16.84zM4.402 9.5c.07-.203.149-.406.23-.61a8.113 8.113 0 0 1 .907-1.593l4.422 3.422a2.989 2.989 0 0 0-.113.222c-.11.223-.188.461-.223.715l-.023.168-3.043-1.105-2.274-.836c.04-.13.074-.258.117-.383zm7.59-5.5h.121a.16.16 0 0 1 .043.004c.403.008.801.047 1.203.117l-.914 5.438h-.843l-.524-3.118-.086.024-.39-2.34c.449-.082.914-.125 1.39-.125zm1.36 7.148c.14.239.234.497.246.778 0 .023.004.05.004.074 0 .055-.004.11-.012.164a.262.262 0 0 1-.07.156l-.079.32-.16.239a1.532 1.532 0 0 1-1.281.723c-.016 0-.031-.004-.043-.004l-.156-.04a1.719 1.719 0 0 1-.918-.43 1.55 1.55 0 0 1-.242-.327l-.121-.2-.012-.023a.76.76 0 0 0-.031-.086l-.036-.172c-.007-.011-.011-.023-.015-.035a1.68 1.68 0 0 1-.028-.285c0-.023.004-.05.004-.074.02-.371.18-.707.477-1.047l.086-.098c.281-.238.64-.383 1.035-.383.566 0 1.066.301 1.352.75zm.16-1.007a2.078 2.078 0 0 0-.309-.215l.438-2.446a4.824 4.824 0 0 1 1.793 1.153zm-2.746-.196a2.009 2.009 0 0 0-.211.145L8.617 8.586A4.746 4.746 0 0 1 10.36 7.48zm-3.567 1.856l2.512.914c.012.047.031.094.047.137L7.8 14.32A4.64 4.64 0 0 1 7.199 12v-.2zm4.664 2.75l1.535 2.05c-.953.317-2.023.278-3.02-.074zm4.258-.11l-1.937-1.453c.035-.074.066-.148.09-.226l2.527-.922v.12c0 .88-.242 1.72-.68 2.481zm1.828-7.773l-1.82 1.426a5.418 5.418 0 0 0-2.379-1.461l.395-2.34a8.04 8.04 0 0 1 3.804 2.375zM9.852 4.297l.386 2.383a5.426 5.426 0 0 0-2.226 1.437L6.09 6.625a8.022 8.022 0 0 1 3.762-2.328zM4 12c0-.453.04-.895.11-1.324l2.308.84c-.02.171-.02.336-.02.484 0 .992.254 1.953.758 2.8L5.22 16.23A7.945 7.945 0 0 1 4 12zm4.414 7.145l1.473-1.961c.672.27 1.39.418 2.113.418.652 0 1.309-.122 1.934-.332l1.464 1.964A7.868 7.868 0 0 1 12 20a7.906 7.906 0 0 1-3.586-.855zm10.277-2.778l-1.87-1.402c.57-.895.859-1.93.859-2.965 0-.148 0-.309-.008-.477l2.223-.812a7.914 7.914 0 0 1-1.203 5.656zm0 0"/>
</svg>
